svgs/duotone/award-simple.svg

<svg xmlns="http://www.w3.org/2000/svg" viewBox="0 0 384 512"><!-- Font Awesome Pro 6.0.0-alpha2 by @fontawesome - https://fontawesome.com License - https://fontawesome.com/license (Commercial License) --><defs><style>.fa-secondary{opacity:.4}</style></defs><path d="M277.976 328.943L312.873 492.699C315.599 505.793 302.015 516.254 290.054 510.273L191.613 461.053L93.171 510.273C81.211 516.254 67.627 505.793 70.353 492.699L105.252 328.936C117.861 334.885 135.806 328.729 149.666 332.434C163.627 336.168 176.478 352 191.613 352C206.738 352 219.589 336.17 233.541 332.441C247.408 328.736 265.369 334.912 277.976 328.943Z" class="fa-secondary"/><path d="M368 176C368 160.873 352.174 148.027 348.441 134.076C344.586 119.643 351.758 100.625 344.445 87.986C337.033 75.172 316.91 71.92 306.512 61.516C296.105 51.113 292.859 30.988 280.043 23.57C267.402 16.256 248.383 23.424 233.951 19.564C219.99 15.832 207.139 0 192 0C176.875 0 164.027 15.83 150.076 19.557C135.646 23.416 116.625 16.242 103.99 23.553C91.174 30.967 87.922 51.092 77.521 61.492C67.119 71.895 46.992 75.141 39.576 87.961C32.256 100.598 39.426 119.615 35.568 134.049C31.834 148.01 16 160.861 16 176C16 191.127 31.834 203.973 35.562 217.922C39.418 232.357 32.242 251.373 39.555 264.012C46.973 276.828 67.094 280.078 77.492 290.482C87.898 300.887 91.145 321.01 103.961 328.43C116.602 335.742 135.617 328.574 150.053 332.434C164.014 336.168 176.865 352 192 352C207.125 352 219.977 336.17 233.928 332.441C248.361 328.584 267.375 335.758 280.014 328.445C292.832 321.031 296.084 300.908 306.482 290.508C316.889 280.104 337.012 276.857 344.432 264.039C351.748 251.4 344.578 232.383 348.436 217.949C352.17 203.99 368 191.137 368 176ZM192 256C147.812 256 112 220.166 112 176C112 131.729 147.812 96 192 96S272 131.729 272 176C272 220.166 236.188 256 192 256Z" class="fa-primary"/></svg>

<svg xmlns="http://www.w3.org/2000/svg" viewBox="0 0 384 512"><!--! Font Awesome Pro 6.3.0 by @fontawesome - https://fontawesome.com License - https://fontawesome.com/license (Commercial License) Copyright 2023 Fonticons, Inc. --><defs><style>.fa-secondary{opacity:.4}</style></defs><path class="fa-primary" d="M368 176c0-15.13-15.83-27.97-19.56-41.92c-3.855-14.43 3.316-33.45-3.996-46.09c-7.412-12.81-27.54-16.07-37.93-26.47c-10.41-10.4-13.65-30.53-26.47-37.95c-12.64-7.314-31.66-.1465-46.09-4.006C219.1 15.83 207.1 0 192 0C176.9 0 164 15.83 150.1 19.56C135.6 23.42 116.6 16.24 103.1 23.55C91.17 30.97 87.92 51.09 77.52 61.49c-10.4 10.4-30.53 13.65-37.95 26.47C32.26 100.6 39.43 119.6 35.57 134C31.83 148 16 160.9 16 176c0 15.13 15.83 27.97 19.56 41.92C39.42 232.4 32.24 251.4 39.55 264c7.418 12.82 27.54 16.07 37.94 26.47c10.41 10.4 13.65 30.53 26.47 37.95c12.64 7.312 31.66 .1445 46.09 4.004C164 336.2 176.9 352 192 352c15.12 0 27.98-15.83 41.93-19.56c14.43-3.857 33.45 3.316 46.09-3.996c12.82-7.414 16.07-27.54 26.47-37.94c10.41-10.4 30.53-13.65 37.95-26.47c7.316-12.64 .1465-31.66 4.004-46.09C352.2 203.1 368 191.1 368 176zM192 256C147.8 256 112 220.2 112 176C112 131.7 147.8 96 192 96s80 35.73 80 80C272 220.2 236.2 256 192 256z"/><path class="fa-secondary" d="M278.4 328.9l34.9 163.8c2.727 13.09-10.86 23.55-22.82 17.57L192 461.1l-98.44 49.22c-11.96 5.98-25.54-4.48-22.82-17.57l34.9-163.8c12.61 5.949 30.55-.207 44.41 3.498C164 336.2 176.9 352 192 352c15.12 0 27.98-15.83 41.93-19.56C247.8 328.7 265.8 334.9 278.4 328.9z"/></svg>
